X: 7
T:Galopede
M:4/4
L:1/8
R:Reel
N:http://www.lesession.co.uk
Z:Steve Mansfield 1998-2001
K:G
dc | B2 Bc A2 AB | G2 G2 G2 AB | cBcd edcB | A2 A2 A2 dc |
B2 Bc A2 AB | G2 G2 G2 AB | cBAG FGAF | G2 B2 G2:: Bc |
d2 gf e2 de | dcBc A2 Bc | d2 gf edcB | A2 A2 A2 Bc |
d2 gf e2 de | dcBc A2 dc | B2 cB A2 BA | G2 G2 G2 :: Bc |
d2 d2 d2 g2 | d2 d2 d2 g2 | d2 d2 edcB | A2 A2 A2 Bc |
d2 d2 d2 g2 | d2 d2 d2 g2 | edcB AGFA | G2 B2 G2 :|

